**kern	**kern	**dynam
*part1	*part1	*part1
*staff2	*staff1	*
*I"Piano	*	*
*clefF4	*clefG2	*
*k[]	*k[]	*
=1	=1	=1
!	!	!LO:DY:a
!	!	!LO:DY:a
2A 2e	2a 2ccn	p <
4A 4f	4a 4dd	[[
=	=	=
!	!	!LO:DY:a
!	!	!LO:DY:a
([4A 4c#X [4a	4cc#X 4ee	f >
2A]) 2e 2a]	2cc#	]]
=	=	=
!	!	!LO:DY:a
(4A	(2e 2a 2ccn	p
4AA	.	.
4BB	4d 4g 4b	.
=	=	=
4FF [4C	4c 4f 4a	.
2CC) 2GG 2C]	2c) 2e	.
=	=	=
!	!LO:TX:a:i:t=dim.	!
(4DD 4AA	(4d 4f	.
4EE 4GG	4c 4g	.
4FF)	4B) 4a	.
=	=	=
!	!	!LO:DY:a
((4EE 4GG#X	(4B [4e	>
2EE)) 2AA	2c) 2e]	]
=	=	=
!	!	!LO:DY:a
[4EE	([4e 4g#X 4b [4ee	pp
2AAA 2EE] 2AA	2e]) 2a 2cc 2ee]	.
==	==	==
*-	*-	*-
!!!system-decoration: {(s1,s2)}
